X: 11784
T: Elizabeth Kelly's Delight
R: slip jig
M: 9/8
K: Edorian
e3 efe edB|e2 Bd2 B ABd|e3 efe edB|ded d2 B ABd:|
|:g2 e fed edB|g2e fdB ABd|g2 e fed edB|1 ded d2 B ABd:|2 ~d3 d z A Bdf||

